!!!!SEGMENT: pl-wtm--r-1373_stefani-jozef--polka-z-baletu-korsarz.krn
!!!cenid: 18xx:2414
!!!COM: Stefani, Józef
!!!COM-rismid: pe30024097
!!!CDT: 1800/04/16-1876/03/19
!!!CNT: Polish
!!!OTL: Polka z baletu Korsarz
!!!PDT:
!!!AGN: Secular; March
!!!SMS-siglum: PL-Wtm
!!!SMS-shelfmark: R 1373
!!!SMS-shelfwork: W
!!!SMS-variant:
!!!SMS-altvar:
!!!NIFC-rismid: 1001117219
!!!URL-scan: http://repozytorium.nifc.pl/skany/pl-wtm-nut--r1373
!!!ONB-nifc:
!!!OMD: Allegro moderato
!!!key:
**kern	**kern	**dynam
*part2	*part1	*part1
*staff2	*staff1	*
*Iforte	*Iforte	*
*I"fortepian	*I"fortepian	*
*clefF4	*clefG2	*
*k[b-]	*k[b-]	*
*d:	*d:	*
*M2/4	*M2/4	*
=1	=1	=1
*>A	*>A	*
!	!	!LO:DY:rj
8D/ 8DD/	8ff\ 8a\ 8f\	f
!	!	!LO:DY:rj
8A\L 8F\ 8D\	16a/LL 16f/	p
.	16a/JJ 16f/	.
8A\ 8F\ 8D\	8dd/L 8a/ 8f/	.
8A\J 8F\ 8D\	8a/J 8f/	.
=2	=2	=2
8B-\L 8G\ 8D\	(16b-/LL	.
.	16a/	.
8B-\J 8G\ 8D\	16g/	.
.	16b-/JJ	.
8A\L 8F\ 8D\	8a/L)	.
8A\J 8F\ 8D\	8f'/J	.
=3	=3	=3
*^	*	*
!	!	!	!LO:DY:rj
4AA/	8AA\L	16g'/LL	f
.	.	16f'/J	.
.	8A\J 8E\ 8C#X\	8e'/J	.
4AA/	8AA\L	16f'/LL	.
.	.	16e'/J	.
.	8F\J 8D\	8d'/J	.
*v	*v	*	*
=4	=4	=4
8AA\L	16c#X/LL	.
.	16d/	.
8A\J 8G\ 8E\	16e/	.
.	16c#/JJ	.
8AA\L	8A/	.
8A\J 8E\ 8C#X\ 8AA\	8a/ 8e/ 8c#X/	sf
!!LO:LB:g=original
=5	=5	=5
!	!	!LO:DY:rj
8D/ 8DD/	8ff\L 8a\ 8f'\	f
!	!	!LO:DY:rj
8A\L 8F\ 8D\	16a\L 16f'\	p
.	16a\JJ 16f'\	.
8A\ 8F\ 8D\	8dd\'L 8a\' 8f'\	.
8A\J 8F\ 8D\	8a\'J 8f'\	.
=6	=6	=6
8B-\L 8G\ 8D\	(16b-/LL	.
.	16a/	.
8B-\J 8G\ 8D\	16g/	.
.	16b-/JJ	.
8A\L 8F\ 8D\	8a/L)	.
8A\J 8F\ 8D\	8f'/J	.
=7	=7	=7
*^	*	*
!	!	!	!LO:DY:rj
4AA/	8AA\L	16ee'\LL	f
.	.	16cc#X'\J	.
.	8G\J 8E\ 8C#X\	8a'\J	.
4AA/	8AA\L	16ff'\LL	.
.	.	16dd'\J	.
.	8F\J 8D\	8a'\J	.
=8	=8	=8	=8
.	.	(>8qa/	.
4AA/	8AA\L	16aa\LL	.
.	.	16gg\	.
.	8G\J 8E\	16ee\	.
.	.	16cc#X\JJ	.
8F\ 8D\	4ryy	8dd\)	.
8r	.	8r	.
*v	*v	*	*
!!LO:LB:g=original
=9:|!|:	=9:|!|:	=9:|!|:
*>B	*>B	*
!LO:TX:t=P:problem:mixed beam	!	!LO:DY:rj
8FF/L	8ff\L 8a\ 8f\	f
8c\J 8A\ 8F\	16cc\L 16a\ 16f\	.
.	16cc\JJ 16a\ 16f\	.
*rep	*	*
!LO:TX:t=P:problem:mixed beam	!	!
8FF/L	8dd-X\L 8b-\ 8f\	.
8c\J 8A\ 8F\	8cc\J 8a\ 8f\	.
*Xrep	*	*
=10	=10	=10
*^	*	*
4F/	8F\L	(16ccc\LL	.
.	.	16bb-\	.
.	8c\J 8B-\	16gg\	.
.	.	16ee\JJ)	.
4F/	8F\L	8ddd\L 8aa-X\ 8ff^<\	.
.	8c\J 8A\	8ccc\J 8aan\ 8ff^<\	.
*v	*v	*	*
=11	=11	=11
!LO:TX:t=P:problem:mixed beam	!	!
8FF/L	8ff\L 8a\ 8f\	.
8c\J 8A\ 8F\	16cc\L 16a\ 16f\	.
.	16cc\JJ 16a\ 16f\	.
*rep	*	*
!LO:TX:t=P:problem:mixed beam	!	!
8FF/L	8dd-X\L 8b-\ 8f\	.
8c\J 8A\ 8F\	8cc\J 8a\ 8f\	.
*Xrep	*	*
=12	=12	=12
*^	*	*
4F/	8F\L	(16ccc\LL	.
.	.	16bb-\	.
.	8c\J 8B-\	16gg\	.
.	.	16ee\JJ)	.
8c\ 8A\ 8F\	4ryy	8ff\	.
8r	.	8r	.
*v	*v	*	*
!!LO:LB:g=original
=13	=13	=13
!LO:TX:t=P:problem:mixed beam	!	!
8FF/L	8ff\L 8a\ 8f\	.
8c\J 8A\ 8F\	16cc\L 16a\ 16f\	.
.	16cc\JJ 16a\ 16f\	.
*rep	*	*
!LO:TX:t=P:problem:mixed beam	!	!
8FF/L	8dd-X\L 8b-\ 8f\	.
8c\J 8A\ 8F\	8cc\J 8a\ 8f\	.
*Xrep	*	*
=14	=14	=14
*^	*	*
4F/	8F\L	(16ccc\LL	.
.	.	16bb-\	.
.	8c\J 8B-\	16gg\	.
.	.	16ee\JJ	.
!	!	!LO:S:s=2:note:problem:note-level slur	!
4F/	8F\L	8ddd\L 8aa-X\) 8ff'^<\	.
.	8c\J 8A\	8ccc\J 8aan\ 8ff'^<\	.
*v	*v	*	*
=15	=15	=15
!LO:TX:t=P:problem:mixed beam	!	!
8FF/L	8ff\L 8a\ 8f\	.
8c\J 8A\ 8F\	16cc\L 16a\ 16f\	.
.	16cc\JJ 16a\ 16f\	.
*rep	*	*
!LO:TX:t=P:problem:mixed beam	!	!
8FF/L	8dd-X\L 8b-\ 8f\	.
8c\J 8A\ 8F\	8cc\J 8a\ 8f\	.
*Xrep	*	*
=16	=16	=16
*^	*	*
4F/	8F\L	(16ccc\LL	.
.	.	16bb-\	.
.	8c\J 8B-\	16gg\	.
.	.	16ee\JJ)	.
8c\ 8A\ 8F\	4ryy	8ff\	.
8r	.	8r	.
*v	*v	*	*
!!LO:LB:g=original
=17	=17	=17
(8qG#X/	(8qg#X/	p
8A\L)	8a/L)	.
8A'\J	8a'/J	sf
*rep	*rep	*
(8qG#/	(8qg#/	.
8A\L)	8a/L)	.
8A'\J	8a'/J	.
*Xrep	*Xrep	*
=18	=18	=18
(16F\LL	(16f/LL	.
16G\	16g/	.
16F\	16f/	.
16E\JJ	16e/JJ	.
8D\L)	8d/L)	.
8F'\J	8f'/J	.
=19	=19	=19
(8qA/	(8qa/	p
8B-X\L)	8b-X/L)	.
8B-'\J	8b-'/J	sf
*rep	*rep	*
(8qA/	(8qa/	.
8B-X\L)	8b-X/L)	.
8B-'\J	8b-'/J	.
*Xrep	*Xrep	*
=20	=20	=20
(16G\LL	(16g/LL	.
16A\	16a/	.
16G\	16g/	.
16F\JJ	16f/JJ	.
8E\L)	8e/L)	.
8G'\J	8g'/J	.
=21	=21	=21
(8qBn/	(8qbn/	p
8c\L)	8cc\L)	.
8c\J	8cc'\J	sf
*rep	*rep	*
(8qB/	(8qb/	.
8c\L)	8cc\L)	.
8c\J	8cc'\J	.
*Xrep	*Xrep	*
!!LO:LB:g=original
=22	=22	=22
(8qB#X/	(8qb#X/	.
8c#X\L)	8cc#X\L)	.
8c#'\J	8cc#'\J	sf
*rep	*rep	*
(8qB#/	(8qb#/	.
8c#\L)	8cc#\L)	.
8c#'\J	8cc#'\J	.
*Xrep	*Xrep	*
=23	=23	=23
8qc#X/	8qcc#X/	.
8d\L	8dd\L	.
8d\J	8dd\J	sf
.	8qdd/	.
8B-X\L 8BB-X\	8g#X/L 8d/	.
8B-\J 8BB-\	8g#/J 8d/	sf
=24	=24	=24
*^	*	*
8A\L 8AA'\	4ryy	8a/ 8c#X/	f
16A\L 16AA'\	.	8r	.
16B-\JJ 16BB-'\	.	.	.
8ryy	16A\LL 16AA'\	16a/LL	.
.	16G\ 16GG'\	16cc#X/ 16a'^/	.
16ryy	16F\ 16FF'\	16dd/ 16a'^/	.
16C#/	16C#\JJ 16CC#\	16ee/JJ 16a'^/	.
*v	*v	*	*
=25	=25	=25
8D/ 8DD/	8ff/L 8a/	f
8A\L 8F\ 8D\	16a/L 16f/	p
.	16a/JJ 16f/	.
8A\ 8F\ 8D\	8dd/L 8a/ 8f/	.
8A\J 8F\ 8D\	8a/J 8f/	.
!!LO:PB:g=original
=26	=26	=26
8B-\L 8G\ 8D\	(16b-/LL	.
.	16a/	.
8B-\J 8G\ 8D\	16g/	.
.	16b-/JJ	.
8A\L 8F\ 8D\	8a/L)	.
8A\J 8F\ 8D\	8f'/J	.
=27	=27	=27
*^	*	*
!	!	!	!LO:DY:rj
4AA/	8AA\L	16g'/LL	f
.	.	16f'/J	.
.	8A\J 8E\ 8C\	8e'/J	.
4AA/	8AA\L	16f'/LL	.
.	.	16e'/J	.
.	8F\J 8D\	8d'/J	.
*v	*v	*	*
=28	=28	=28
8AA\L	16c#X/LL	.
.	16d/	.
8A\J 8G\ 8E\	16e/	.
.	16c#/JJ	.
8AA\L	8A/	.
8A\J 8E\ 8C#X\ 8AA\	8a/ 8e/ 8c#/	sf
=29	=29	=29
8D/L 8DD/	8ff/L 8a/ 8f/	f
8A/ 8F/ 8D/	16a/L 16f/	p
.	16a/JJ 16f/	.
8A/ 8F/ 8D/	8dd/L 8a/ 8f/	.
8A/J 8F/ 8D/	8a/J 8f/	.
=30	=30	=30
8B-\L 8G\ 8D\	(16b-/LL	.
.	16a/	.
8B-\J 8G\ 8D\	16g/	.
.	16b-/JJ	.
8A\L 8F\ 8D\	8a/L)	.
8A\J 8F\ 8D\	8f'/J	.
!!LO:LB:g=original
=31	=31	=31
*^	*	*
!	!	!	!LO:DY:rj
4GG/	8GG\L	16g'/LL	f
.	.	16f'/J	.
.	8G\J 8E\ 8BB-X\	8e'/J	.
4AA/	8AA\L	16f'/LL	.
.	.	16e'/J	.
.	8F\J 8D\	8d'/J	.
=32	=32	=32	=32
!LO:TX:a:t=1ma	!	!	!
*>B1	*>B1	*>B1	*
4AA/	8AA\L	16c#X/LL	.
.	.	16d/	.
.	8G\J 8E\	16e/	.
.	.	16c#/JJ	.
8F\ 8D\	4ryy	8d/	.
8Cn/ 8CCn/	.	8ee\ 8b-X\ 8g\	.
=33:|!	=33:|!	=33:|!	=33:|!
!LO:TX:a:t=2da	!	!	!
*>B2	*>B2	*>B2	*
4AA/	8AA\L	16c#X/LL	.
.	.	16d/	.
.	8G\J 8E\	16e/	.
.	.	16c#/JJ	.
8F\ 8D\	4ryy	8d/	.
!LO:TX:a:t=fine.	!	!LO:TX:t=P:problem:fermata na kresce	!
8r	.	8r	.
*v	*v	*	*
!!LO:LB:g=original
=34|!	=34|!	=34|!
*>C	*	*
*k[f#c#]	*k[f#c#]	*
!	!LO:TX:b:t=Trio.	!LO:DY:rj
8D/L 8AA/ 8DD/	(>8f#/L 8d/ 8A'/	p
8D/ 8AA/ 8DD/	8f#/ 8d/ 8A'/	.
8D/ 8AA/ 8DD/	8f#/ 8d/ 8A'/	.
8D/J 8AA/ 8DD/	8f#/J 8d/ 8A'/)	.
=35	=35	=35
8D/L 8AA/ 8GG/ 8DD/	8e'/L	sf
8D/J 8AA/ 8GG/ 8DD/	(>16e/L	.
.	16f#/JJ)	.
8D/L 8AA/ 8FF#/ 8DD/	8d'/L	.
8D/J 8AA/ 8FF#/ 8DD/	8A'/J	.
=36	=36	=36
8D/L 8AA/ 8DD/	(>8f#/L 8d/ 8A'/	.
8D/ 8AA/ 8DD/	8f#/ 8d/ 8A'/	.
8D/ 8AA/ 8DD/	8f#/ 8d/ 8A'/	.
8D/J 8AA/ 8DD/	8f#/J 8d/ 8A'/)	.
=37	=37	=37
8E/L 8AA/ 8GG/ 8DD/	(16a/LL	sf
.	16g/	.
8E/J 8AA/ 8GG/ 8DD/	16e/	.
.	16c#X/JJ	.
8D/ 8AA/ 8FF#/ 8DD/	8d/)	.
8r	8r	f
=38	=38	=38
8A\L 8F#\ 8D\	(8ff#\L 8dd\ 8a'\	.
8A\ 8F#\ 8D\	8ff#\ 8dd\ 8a'\	.
8A\ 8F#\ 8D\	8ff#\ 8dd\ 8a'\	.
8A\J 8F#\ 8D\	8ff#\J 8dd\ 8a'\)	.
!!LO:LB:g=original
=39	=39	=39
8A\L 8G\ 8D\	8ee'\L	sf
8A\ 8G\ 8D\	(16ee\L	.
.	16ff#\JJ)	.
8A\ 8F#\ 8D\	8dd'\L	.
8A\J 8F#\ 8D\	8a'\J	.
=40	=40	=40
*2\right	*2\right	*
*tremolo	*tremolo	*
!	!LO:TX:t=....	!
8A\L 8F#\ 8D\	(8ff#\L 8dd\ 8a'\	.
8A\ 8F#\ 8D\	8ff#\ 8dd\ 8a'\	.
8A\ 8F#\ 8D\	8ff#\ 8dd\ 8a'\	.
8A\J 8F#\ 8D\	8ff#\J 8dd\ 8a'\)	.
*Xtremolo	*Xtremolo	*
=41	=41	=41
8A\L 8G\ 8D\	(16aa\LL	.
.	16gg\	.
8A\J 8G\ 8D\	16ee\	.
.	16cc#\J	.
8A\ 8F#\ 8D\	8dd\J)	.
8r	8r	.
=42!|:	=42!|:	=42!|:
*>D	*>D	*
*^	*	*
!	!	!	!LO:DY:rj
4AA/	8AA\L	16a'/LL	p
.	.	16b'/J	.
.	8G\J 8E\	8cc#'/J	.
!	!	!	!LO:DY:rj
8AA/L 8AAA/	4ryy	16ee\LL 16cc#'\	f
.	.	16ff#\J 16dd'\	.
8G/J 8E/ 8C#/ 8AA/	.	8gg\J 8ee'\	.
*v	*v	*	*
=43	=43	=43
!	!	!LO:DY:rj
8DD/L	16dd'\LL	p
.	16ee'\J	.
8F#/J 8D/ 8AA/	8ff#'\J	.
!	!	!LO:DY:rj
8D/L 8DD/	16ff#\LL 16dd'\	f
.	16gg\J 16ee'\	.
8F#/J 8D/ 8AA/	8aa\J 8ff#'\	.
!!LO:LB:g=original
=44	=44	=44
!	!	!LO:DY:rj
(8AA\L	(16ccc#\LL 16aa\	mf
.	16bb\JJ 16gg\)	.
8C#\	(16ccc#\LL 16aa\	.
.	16bb\JJ 16gg\)	.
8E\	8gg\L 8ee'^<\	.
8A\J)	8ee\J 8cc#'^<\	.
=45	=45	=45
(8DD/L	(16bb\LL 16gg\	.
.	16aa\JJ 16ff#\)	.
8FF#/	(16bb\LL 16gg\	.
.	16aa\JJ 16ff#\)	.
8AA/	8ff#\L 8dd'^<\	.
8D/J)	8ddd\J 8ff#\ 8dd'^<\	.
=46	=46	=46
*^	*	*
!	!	!	!LO:DY:rj
4AA/	8AA\L	16a'/LL	p
.	.	16b'/J	.
.	8G\J 8E\	8cc#'/J	.
!	!	!	!LO:DY:rj
8AA/L 8AAA/	4ryy	16ee\LL 16cc#'\	f
.	.	16ff#\J 16dd'\	.
8G/J 8E/ 8C#/ 8AA/	.	8gg\J 8ee'\	.
*v	*v	*	*
=47	=47	=47
!	!	!LO:DY:rj
8DD/L	16dd'\LL	p
.	16ee'\J	.
8F#/J 8D/ 8AA/	8ff#'\J	.
!	!	!LO:DY:rj
8GG#X/L 8GGG#X/	16bb\LL 16b'\	f
.	16ccc#\J 16cc#'\	.
8Fn/J 8D/ 8BB/ 8GG#/	8ddd\J 8dd'\	.
!!LO:LB:g=original
=48	=48	=48
8AA/L 8AAA/	16aa\LL 16ff#'\	.
.	16fff#\J 16ddd'\	.
8F#X/J 8D/ 8AA/	8dd'\J	.
*rep	*	*
8AA/L 8AAA/	16ff#\LL 16dd'\	.
.	16aa\J 16ff#'\	.
8F#/J 8D/ 8AA/	8a'\J	.
*Xrep	*	*
=49	=49	=49
.	(16qqa/LL	.
.	16qqcc#/	.
.	16qqee/JJ)	.
8G\L 8E\ 8C#\ 8AA\	(16bb\LL	.
.	16aa\	.
8G\J 8E\ 8C#\ 8AA\	16gg\	.
.	16ee\JJ	.
8F#\ 8D\	8dd\)	.
!LO:TX:a:t=V&colon; S&colon;	!	!
8r	8r	.
!!LO:PB:g=original
=50:|!	=50:|!	=50:|!
*>E	*>E	*
16.Cn/LL|	16.ee-X\LL	.
(32BB/K	(32dd\K	.
16.C/)	16.ee-\)	.
(32D/JJk	(32dd\JJk	.
8E-X\L)	8ccn\L)	.
8cn\J 8G\ 8E-\	8b-X'\J	.
=51	=51	=51
!LO:SIC:v:n=1:s=cn	!	!
8c#\L 8A\ 8D\	16.a/LL|	.
.	(32g#X/K	.
!LO:SIC:v:n=1:s=cn	!	!
8c#\ 8A\ 8D\	16.a/)	.
.	(32f#/JJk	.
!LO:SIC:v:n=1:s=cn	!LO:TX:t=P:problem:mixed beam	!
8c#\ 8A\ 8D\	8d/L)	.
!LO:SIC:v:n=1:s=cn	!	!
8c#\J 8A\ 8D\	8dd\J	.
=52	=52	=52
16.Cn/LL|	16.ee-X\LL|	.
(32BB/K	(32dd\K|	.
16.C/)	16.ee-\)	.
(32D/JJk	(32dd\JJk|	.
8E-X\L)	8ccn\L)	.
8cn\J 8G\ 8E-\	8b-X'\J	.
=53	=53	=53
*tremolo	*	*
!LO:SIC:v:n=1:s=cn	!	!
8c#\L 8A\ 8D\	16.a/LL|	.
.	(32g#X/K	.
!LO:SIC:v:n=1:s=cn	!	!
8c#\ 8A\ 8D\	16.a/)	.
.	(32f#/JJk	.
!LO:SIC:v:n=1:s=cn	!	!
8c#\ 8A\ 8D\	8d/L)	.
!LO:SIC:v:n=1:s=cn	!	!
8c#\J 8A\ 8D\	8d'/J	.
*Xtremolo	*	*
!!LO:LB:g=original
=54	=54	=54
!	!	!
16.G\LL|	16.g/LL|	.
(32F#\K	(32f#/K	.
16.G\)	16.g/)	.
(32A\JJk	(32a/JJk	.
8B-X\L)	8b-X/L)	.
8G'\J	8g'/J	.
=55	=55	=55
!	!	!
16.G#X\LL|	16.g#X/LL|	.
(32F##X\K	(32f##X/K	.
16.G#\)	16.g#/)	.
(32A\JJk	(32a/JJk	.
8Bn\L)	8bn/L)	.
8G#'\J	8g#'/J	.
=56	=56	=56
16A'\LL	16a'/LL	.
16G#X'\J	16g#X'/J	.
8A'\J	8a'/J	.
16A'\LL	16a'/LL	.
16B-X'\J	16b-X'/J	.
8A'\J	8a'/J	.
=57	=57	=57
!	!	!
16.A\LL	16.a/LL|	.
32G#X\K	(32g#X/K	.
16.A\	16.a/)	.
32G#\JJk	(32g#/JJk	.
16.A\LL	16.a/LL)	.
!	!	!
32Gn\K	32cc#X/|K 32a/	.
!	!	!
16.F#\	16.dd/| 16.a/	.
!LO:TX:b:i:t=Da capo al fine e poi la Coda	!	!
32C#\JJk	32ee/|JJk 32a/	.
!!LO:LB:g=original
=58||	=58||	=58||
!	!LO:TX:a:i:t=Coda	!
16.D\LL	16.dd'\LL	.
32E\K	32ee'\K	.
16.F#\	16.ff#'\	.
32D\JJk	32dd'\JJk	.
8B\L 8BB\	8ddd\L 8ff#\ 8dd'^<\	.
8B\J 8BB\	8ddd\J 8ff#\ 8dd'^<\	.
=59	=59	=59
16.D\LL	16.dd'\LL	.
32E\K	32ee'\K	.
16.Fn\	16.ffn'\	.
32D\JJk	32dd'\JJk	.
8B-X\L 8BB-X\	8ddd\L 8ff\ 8dd'^<\	.
8B-\J 8BB-\	8ddd\J 8ff\ 8dd'^<\	.
=60	=60	=60
*^	*	*
4AA/	8AA\L	(16bb\LL	.
.	.	16aa\)	.
.	8A\J 8F#\ 8D\	16ff#'\	.
.	.	16dd'\JJ	.
*rep	*rep	*	*
4AA/	8AA\L	(16b/LL	.
.	.	16a/)	.
.	8A\J 8F#\ 8D\	16f#'/	.
.	.	16d'/JJ	.
*Xrep	*Xrep	*	*
*v	*v	*	*
=61	=61	=61
!	!LO:TX:t=P:problem:mixed beam	!
8AA/	8c#/L	.
16.A\LL 16.E\ 16.AA\	16.ccc#\L 16.aa\ 16.ee\	.
32A\JJk 32E\ 32AA\	32ccc#\JJk 32aa\ 32ee\	.
8A\L 8E\ 8AA\	8ccc#\L 8aa\ 8ee\	.
8A\J 8E\ 8AA\	8ccc#\J 8aa\ 8ee\	.
!!LO:LB:g=original
=62	=62	=62
16.D\LL	16.dd\LL	.
32E\K	32ee\K	.
16.F#\	16.ff#\	.
32D\JJk	32dd\JJk	.
8B\L 8BB\	8ddd\L 8ff#\ 8dd^<\	.
8B\J 8BB\	8ddd\J 8ff#\ 8dd^<\	.
=63	=63	=63
16.D\LL	16.dd\LL	.
32E\K	32ee\K	.
16.Fn\	16.ffn\	.
32D\JJk	32dd\JJk	.
8B-X\L 8BB-X\	8ddd\L 8ff\ 8dd^<\	.
8B-\J 8BB-\	8ddd\J 8ff\ 8dd^<\	.
=64	=64	=64
*^	*	*
4AA/	8AA\L	(16bb\LL	.
.	.	16aa\)	.
.	8A\J 8F#\ 8D\	16ff#'\	.
.	.	16dd'\JJ	.
*rep	*rep	*	*
4AA/	8AA\L	(16eee\LL	.
.	.	16ddd\)	.
.	8A\J 8F#\ 8D\	16aa'\	.
.	.	16ff#'\JJ	.
*Xrep	*Xrep	*	*
*v	*v	*	*
=65	=65	=65
16A\LL	16ee\LL 16cc#'\	.
16G\	16ff#\ 16dd'\	.
16F#\	16gg\ 16ee'\	.
16E\JJ	16aa\JJ 16ff#'\	.
16D/LL	16bb\LL 16gg'\	.
16C#/	16ccc#\ 16aa'\	.
16BB/	16ddd\ 16bb'\	.
16AA/JJ	16eee\JJ 16ccc#\	.
!!LO:LB:g=original
=66	=66	=66
4D/	4ddd\	.
4r	4r	.
=67	=67	=67
4d\ 4A\ 4F#\ 4D\	4fff#\ 4ddd\ 4aa\	.
8.r	8.r	.
16D\ 16DD\	16d/ 16A</ 16F#</	.
=68	=68	=68
2D\ 2DD\	2d/ 2A</ 2F#</	.
==	==	==
*-	*-	*-
!!!system-decoration: [(s1,s2)]
!!!RDF**kern: | = vertical stroke
!!!RDF**kern: > = above
!!!RDF**kern: < = below
!!!EED: Andrzej Borzym
!!!EST: 2021-06-24
!!!AIN: 2 forte
!!!ENC: Marcin Jachim
!!!END: 2021-06-14
